kora-light/actions/scalable/key-enter.svg

<svg xmlns="http://www.w3.org/2000/svg" style="fill-rule:evenodd;clip-rule:evenodd;stroke-linejoin:round;stroke-miterlimit:2" width="100%" height="100%" version="1.1" viewBox="0 0 16 16" xml:space="preserve">
 <defs>
  <style id="current-color-scheme" type="text/css">
   .ColorScheme-Text { color:#444444; } .ColorScheme-Highlight { color:#4285f4; } .ColorScheme-NeutralText { color:#ff9800; } .ColorScheme-PositiveText { color:#4caf50; } .ColorScheme-NegativeText { color:#f44336; }
  </style>
 </defs>
 <path style="fill:currentColor;fill-opacity:0.3" class="ColorScheme-Text" d="M7,1c0,0 -1,0 -1,1l0,4l-4,0c0,0 -1,0 -1,1l0,7c0,1 1,1 1,1l12,0c0,0 1,0 1,-1l0,-12c0,-1 -1,-1 -1,-1l-7,0Z"/>
 <path style="fill:currentColor;" class="ColorScheme-Text" d="M10.209,2.278l1.262,-0l0,8.837l-5.05,0l0,1.263l-3.787,-1.894l3.787,-1.894l0,1.263l3.788,-0l-0,-7.575Z"/>
</svg>

<svg xmlns="http://www.w3.org/2000/svg" width="16" height="16" version="1.1">
 <defs>
  <style id="current-color-scheme" type="text/css">
   .ColorScheme-Text { color:#444444; } .ColorScheme-Highlight { color:#4285f4; }
  </style>
 </defs>
 <path style="fill:currentColor" class="ColorScheme-Text" d="M 7,1 C 7,1 6,1 6,2 V 6 H 2 C 2,6 1,6 1,7 V 14 C 1,15 2,15 2,15 H 14 C 14,15 15,15 15,14 V 2 C 15,1 14,1 14,1 Z M 11,4 H 12 V 11 H 8 V 12 L 5,10.5 8,9 V 10 H 11 Z"/>
</svg>
